X:96
T:Le Vir\'ee dans Villeray
C:Jean-Claude B\'elanger
Z:robin.beech@mcgill.ca
M:4/4
L:1/8
K:A
ACEA cEAc | dFBd cAce | faaf eaae | fddf e2zE |
ACEA cEAc | dFBd cAce | faaf edcA | BfdB A2ze ::
dBBd cAAc | dBBd cEEc | BDDB ACCA | BEEB A2ze |
dBBd cAAc | dBBd caae | fbaf ecde | dfdB A2ze :|

